TGraph/excl.svg

<svg xmlns="http://www.w3.org/2000/svg" viewBox="0 0 1200 800" preserveAspectRatio="none" width="1200" height="800">
 <defs>
  <pattern id="pat_3005_6" patternUnits="userSpaceOnUse" width="8" height="8">
   <path d="M0,0L8,8" style="stroke: magenta; stroke-width: 1;"></path>
  </pattern>
  <pattern id="pat_3005_1" patternUnits="userSpaceOnUse" width="8" height="8">
   <path d="M0,0L8,8" style="stroke: black; stroke-width: 1;"></path>
  </pattern>
  <pattern id="pat_3004_2" patternUnits="userSpaceOnUse" width="8" height="8">
   <path d="M8,0L0,8" style="stroke: red; stroke-width: 1;"></path>
  </pattern>
  <pattern id="pat_3004_4" patternUnits="userSpaceOnUse" width="8" height="8">
   <path d="M8,0L0,8" style="stroke: blue; stroke-width: 1;"></path>
  </pattern>
 </defs>
 <path d="M0,0H1200V800H0Z" style="fill: white;"></path>
 <g>
  <g transform="translate(120,80)">
   <path d="M0,0H960V640H0Z" style="fill: white; stroke: black; stroke-width: 1;"></path>
   <g>
    <path d="M0,0v640M107,0v640M213,0v640M320,0v640M427,0v640M533,0v640M640,0v640M747,0v640M853,0v640M960,0v640" style="stroke: black; stroke-width: 1; stroke-dasharray: 1,2;"></path>
    <path d="M0,640h960M0,527h960M0,460h960M0,413h960M0,377h960M0,347h960M0,322h960M0,300h960M0,281h960M0,263h960M0,150h960M0,84h960M0,37h960M0,0h960" style="stroke: black; stroke-width: 1; stroke-dasharray: 1,2;"></path>
   </g>
   <svg x="0" y="0" overflow="hidden" width="960" height="640" viewBox="0 0 960 640">
    <g>
     <path d="M192,645C191.95,644.58,170.8,466.67,170.67,465.82S159.74,421.54,159.31,420S135.56,346.43,135.17,345S125.29,299.54,124.83,299.76S131.47,263.84,131.72,262.86S148.2,224.84,148.97,222.38S183.14,84.54,183.45,83.1S192.31,36.62,192,36.51S181.38,-29.55,181.33,-29.83L151.71,-25.06C152.19,-23.6,180.93,64.31,181.21,64.5S158.29,71.91,154.09,76.91S121.1,210.98,120.34,213.42S99.83,255.82,102.69,255.31S137.57,326.46,138,326.71S106.74,353.37,106.19,352.75S130,426.58,130.42,428.09S140.91,469.75,141.05,470.58S162.16,648.13,162.21,648.55Z" style="fill: url(#pat_3005_6); opacity: 0.75;"></path>
     <path d="M192,645C191.95,644.58,170.8,466.67,170.67,465.82S159.74,421.54,159.31,420S135.56,346.43,135.17,345S125.29,299.54,124.83,299.76S131.47,263.84,131.72,262.86S148.2,224.84,148.97,222.38S183.14,84.54,183.45,83.1S192.31,36.62,192,36.51S181.38,-29.55,181.33,-29.83" style="stroke: magenta; stroke-width: 3; fill: none;"></path>
    </g>
    <g>
     <path d="M958,459l-152,-2l-148,-2l-112,-8l-132,-6l-81,-17l-60,-30l-64,-53l-36,-41l-41,-10l-21,-19l-12,-53l-9,-60l-3,-53l5,-106" style="stroke: black; stroke-width: 3; fill: none;"></path>
    </g>
    <g>
     <path d="M270.59,251.47C274.15,249.3,289.33,237.94,299.89,233.59S326.13,225.38,344.7,224.06S387.8,228.53,411.92,228.83S468.62,226.76,489.48,225.25S519.35,222.77,537.74,220.48S577.68,213.61,601.51,210.95S649.68,209,682.51,204.99S756.43,191.3,801.44,184.73S932.52,168.79,958.28,165.66L954.66,135.88C928.78,139.03,842.1,148.47,797.1,155.04S711.55,171.23,678.88,175.21S622.03,178.48,598.18,181.13S552.24,188.46,534.04,190.71S507.5,193.86,487.31,195.33S436.41,199.08,412.29,198.83S363.1,192.6,342.58,194.13S301.01,200.75,288.48,205.85S259.08,223.4,254.97,225.86Z" style="fill: url(#pat_3004_2); opacity: 0.75;"></path>
     <path d="M270.59,251.47C274.15,249.3,289.33,237.94,299.89,233.59S326.13,225.38,344.7,224.06S387.8,228.53,411.92,228.83S468.62,226.76,489.48,225.25S519.35,222.77,537.74,220.48S577.68,213.61,601.51,210.95S649.68,209,682.51,204.99S756.43,191.3,801.44,184.73S932.52,168.79,958.28,165.66" style="stroke: red; stroke-width: 3; fill: none;"></path>
    </g>
    <g>
     <path d="M274.04,464.8C280.06,461.57,305.76,446.75,320.57,439.78S366.19,418.97,382.62,414.75S411.57,408.22,425.71,409.98S454.22,419.25,468.8,425.47S505.63,448.28,529.12,455.27S594.61,461.13,622.19,466S666.18,477.37,699.75,485.07S793.3,503.81,834.18,513.67S939.87,542.14,959.31,547.38L950.21,581.18C930.9,575.97,866.66,557.5,825.98,547.69S725.15,526.81,691.93,519.18S643.97,505.58,616.11,500.46S543.73,496.27,519.14,488.82S468.76,463.63,455.06,457.67S431.84,446.04,421.39,444.71S404.68,445.05,391.33,448.65S349.19,464.95,335.48,471.45S296.41,492.51,290.62,495.63Z" style="fill: url(#pat_3004_4); opacity: 0.75;"></path>
     <path d="M274.04,464.8C280.06,461.57,305.76,446.75,320.57,439.78S366.19,418.97,382.62,414.75S411.57,408.22,425.71,409.98S454.22,419.25,468.8,425.47S505.63,448.28,529.12,455.27S594.61,461.13,622.19,466S666.18,477.37,699.75,485.07S793.3,503.81,834.18,513.67S939.87,542.14,959.31,547.38" style="stroke: blue; stroke-width: 3; fill: none;"></path>
    </g>
    <g>
     <path d="M218.89,126.33C229.48,130.99,267.85,149.51,294.72,159.7S376.31,191.43,403.3,194.26S438.15,193.32,458.46,188.31S509.87,166.45,532.57,159.7S586.16,148.79,606.68,144.21S640.66,135.57,661.83,131.1S713.79,120.5,739.39,116.8S782.46,111.6,818.67,108.45S935.12,100.5,958.28,98.92L956.23,68.99C932.98,70.58,852.66,75.39,816.08,78.57S761.28,83.31,735.09,87.11S677.17,97.2,655.64,101.75S621.03,110.25,600.14,114.93S546.79,124.13,524.01,130.95S469.68,154.53,451.26,159.18S430.5,166.92,406.44,164.43S330.87,141.41,305.36,131.65S241.35,103.45,230.97,98.87Z" style="fill: url(#pat_3004_4); opacity: 0.75;"></path>
     <path d="M218.89,126.33C229.48,130.99,267.85,149.51,294.72,159.7S376.31,191.43,403.3,194.26S438.15,193.32,458.46,188.31S509.87,166.45,532.57,159.7S586.16,148.79,606.68,144.21S640.66,135.57,661.83,131.1S713.79,120.5,739.39,116.8S782.46,111.6,818.67,108.45S935.12,100.5,958.28,98.92" style="stroke: blue; stroke-width: 3; fill: none;"></path>
    </g>
   </svg>
   <g>
    <g transform="translate(0,640)">
     <path d="M0,0h960M0,-640h960M0,-16v16m21,-8v8m22,-8v8m21,-8v8m21,-8v8m22,-16v16m21,-8v8m21,-8v8m22,-8v8m21,-8v8m21,-16v16m22,-8v8m21,-8v8m21,-8v8m22,-8v8m21,-16v16m21,-8v8m22,-8v8m21,-8v8m21,-8v8m22,-16v16m21,-8v8m21,-8v8m22,-8v8m21,-8v8m21,-16v16m22,-8v8m21,-8v8m21,-8v8m22,-8v8m21,-16v16m21,-8v8m22,-8v8m21,-8v8m21,-8v8m22,-16v16m21,-8v8m21,-8v8m22,-8v8m21,-8v8m21,-16v16m22,-8v8m21,-8v8m21,-8v8m22,-8v8m21,-16v16M0,-624v-16m21,8v-8m22,8v-8m21,8v-8m21,8v-8m22,16v-16m21,8v-8m21,8v-8m22,8v-8m21,8v-8m21,16v-16m22,8v-8m21,8v-8m21,8v-8m22,8v-8m21,16v-16m21,8v-8m22,8v-8m21,8v-8m21,8v-8m22,16v-16m21,8v-8m21,8v-8m22,8v-8m21,8v-8m21,16v-16m22,8v-8m21,8v-8m21,8v-8m22,8v-8m21,16v-16m21,8v-8m22,8v-8m21,8v-8m21,8v-8m22,16v-16m21,8v-8m21,8v-8m22,8v-8m21,8v-8m21,16v-16m22,8v-8m21,8v-8m21,8v-8m22,8v-8m21,16v-16" style="stroke: black; stroke-width: 1;"></path>
     <g font-family="Arial" font-size="24" space="preserve" fill="black" text-anchor="middle">
      <text dy=".8em" transform="translate(0,6)">
       50
      </text>
      <text dy=".8em" transform="translate(107,6)">
       100
      </text>
      <text dy=".8em" transform="translate(213,6)">
       150
      </text>
      <text dy=".8em" transform="translate(320,6)">
       200
      </text>
      <text dy=".8em" transform="translate(427,6)">
       250
      </text>
      <text dy=".8em" transform="translate(533,6)">
       300
      </text>
      <text dy=".8em" transform="translate(640,6)">
       350
      </text>
      <text dy=".8em" transform="translate(747,6)">
       400
      </text>
      <text dy=".8em" transform="translate(853,6)">
       450
      </text>
      <text dy=".8em" transform="translate(960,6)">
       500
      </text>
     </g>
     <g font-family="Arial" font-size="28" space="preserve" transform="translate(960,45)">
      <g transform="translate(-116,9)">
       <text fill="black" font-size="28">
        m
       </text>
       <text fill="black" font-size="17" transform="translate(24,5)">
        A
       </text>
       <text fill="black" font-size="28" x="36">
        (GeV)
       </text>
      </g>
     </g>
    </g>
    <g>
     <path d="M0,0v640M960,0v640M36,640h-36m36,-113h-36m36,-67h-36m36,-47h-36m36,-36h-36m36,-30h-36m36,-25h-36m36,-22h-36m36,-19h-36m36,-18h-36m36,-113h-36m36,-66h-36m36,-47h-36m36,-37h-36M924,640h36m-36,-113h36m-36,-67h36m-36,-47h36m-36,-36h36m-36,-30h36m-36,-25h36m-36,-22h36m-36,-19h36m-36,-18h36m-36,-113h36m-36,-66h36m-36,-47h36m-36,-37h36" style="stroke: black; stroke-width: 1;"></path>
     <g font-family="Arial" font-size="16" space="preserve" fill="black" text-anchor="end">
      <text dy=".4em" transform="translate(-4,640)">
       1
      </text>
      <text dy=".4em" transform="translate(-4,527)">
       2
      </text>
      <text dy=".4em" transform="translate(-4,460)">
       3
      </text>
      <text dy=".4em" transform="translate(-4,413)">
       4
      </text>
      <text dy=".4em" transform="translate(-4,377)">
       5
      </text>
      <text dy=".4em" transform="translate(-4,347)">
       6
      </text>
      <text dy=".4em" transform="translate(-4,322)">
       7
      </text>
      <text dy=".4em" transform="translate(-4,300)">
       8
      </text>
      <text dy=".4em" transform="translate(-4,281)">
       9
      </text>
      <text dy=".4em" transform="translate(-4,263)">
       10
      </text>
      <text dy=".4em" transform="translate(-4,150)">
       20
      </text>
      <text dy=".4em" transform="translate(-4,84)">
       30
      </text>
      <text dy=".4em" transform="translate(-4,37)">
       40
      </text>
      <text dy=".4em" transform="translate(-4)">
       50
      </text>
     </g>
     <g font-family="Arial" font-size="28" space="preserve" transform="translate(-51,0)">
      <g transform=" rotate(270) translate(-56,10)">
       <text fill="black" font-size="28">
        tanβ
       </text>
      </g>
     </g>
    </g>
   </g>
   <g>
    <g font-family="Arial" font-size="29" space="preserve" font-weight="bold">
     <g transform="translate(194,45)">
      <text fill="magenta" font-size="29">
       ← t → bH
      </text>
      <text fill="magenta" font-size="17" transform="translate(134,-14)">
       +
      </text>
      <text fill="magenta" font-size="29" x="145">
       , H
      </text>
      <text fill="magenta" font-size="17" transform="translate(183,-14)">
       +
      </text>
      <text fill="magenta" font-size="29" x="194">
       → τν
      </text>
     </g>
    </g>
    <g font-family="Arial" font-size="29" space="preserve" font-weight="bold">
     <text fill="black" text-anchor="start" transform="translate(633,331)">
      ATLAS
     </text>
    </g>
    <g font-family="Arial" font-size="17" space="preserve" font-weight="bold">
     <g transform="translate(594,369)">
      <g>
       <path style="stroke: black; stroke-width: 2; fill: none;" d="M0,4a3,3,0,0,0,6,0v-23a3,3,0,1,1,6,0"></path>
      </g>
      <text fill="black" font-size="17" x="17">
       Ldt = 300 fb
      </text>
      <text fill="black" font-size="10" transform="translate(112,-8)">
       -1
      </text>
     </g>
    </g>
    <g font-family="Arial" font-size="17" space="preserve" font-weight="bold">
     <text fill="black" text-anchor="start" transform="translate(620,406)">
      Maximal mixing
     </text>
    </g>
    <g font-family="Arial" font-size="17" space="preserve" font-weight="bold">
     <text fill="black" text-anchor="start" transform="translate(775,489)">
      LEP 2000
     </text>
    </g>
    <g font-family="Arial" font-size="29" space="preserve" font-weight="bold">
     <g transform="translate(295,274)">
      <text fill="red" font-size="29">
       gb → tH
      </text>
      <text fill="red" font-size="17" transform="translate(112,-14)">
       +
      </text>
      <text fill="red" font-size="29" x="123">
       , H
      </text>
      <text fill="red" font-size="17" transform="translate(161,-14)">
       +
      </text>
      <text fill="red" font-size="29" x="172">
       → τν
      </text>
     </g>
    </g>
    <g font-family="Arial" font-size="29" space="preserve" font-weight="bold">
     <g transform="translate(245,616)">
      <text fill="blue" font-size="29">
       gb → tH
      </text>
      <text fill="blue" font-size="17" transform="translate(112,-14)">
       +
      </text>
      <text fill="blue" font-size="29" x="123">
       , H
      </text>
      <text fill="blue" font-size="17" transform="translate(161,-14)">
       +
      </text>
      <text fill="blue" font-size="29" x="172">
       → tb
      </text>
     </g>
    </g>
   </g>
  </g>
 </g>
</svg>

<svg xmlns="http://www.w3.org/2000/svg" viewBox="0 0 1200 800" preserveAspectRatio="none" width="1200" height="800">
 <defs>
  <pattern id="pat_3005_6" patternUnits="userSpaceOnUse" width="8" height="8">
   <path d="M0,0L8,8" style="stroke: magenta; stroke-width: 1;"></path>
  </pattern>
  <pattern id="pat_3005_1" patternUnits="userSpaceOnUse" width="8" height="8">
   <path d="M0,0L8,8" style="stroke: black; stroke-width: 1;"></path>
  </pattern>
  <pattern id="pat_3004_2" patternUnits="userSpaceOnUse" width="8" height="8">
   <path d="M8,0L0,8" style="stroke: red; stroke-width: 1;"></path>
  </pattern>
  <pattern id="pat_3004_4" patternUnits="userSpaceOnUse" width="8" height="8">
   <path d="M8,0L0,8" style="stroke: blue; stroke-width: 1;"></path>
  </pattern>
 </defs>
 <path d="M0,0H1200V800H0Z" style="fill: white;"></path>
 <g>
  <g transform="translate(120,80)">
   <path d="M0,0H960V640H0Z" style="fill: white; stroke: black; stroke-width: 1;"></path>
   <g>
    <path d="M0,0v640M107,0v640M213,0v640M320,0v640M427,0v640M533,0v640M640,0v640M747,0v640M853,0v640M960,0v640" style="stroke: black; stroke-width: 1; stroke-dasharray: 1,2;"></path>
    <path d="M0,640h960M0,527h960M0,460h960M0,413h960M0,377h960M0,347h960M0,322h960M0,300h960M0,281h960M0,263h960M0,150h960M0,84h960M0,37h960M0,0h960" style="stroke: black; stroke-width: 1; stroke-dasharray: 1,2;"></path>
   </g>
   <svg x="0" y="0" overflow="hidden" width="960" height="640" viewBox="0 0 960 640">
    <g>
     <path d="M192,645C191.95,644.58,170.8,466.67,170.67,465.82S159.74,421.54,159.31,420S135.56,346.43,135.17,345S125.29,299.54,124.83,299.76S131.47,263.84,131.72,262.86S148.2,224.84,148.97,222.38S183.14,84.54,183.45,83.1S192.31,36.62,192,36.51S181.38,-29.55,181.33,-29.83L151.71,-25.06C152.19,-23.6,180.93,64.31,181.21,64.5S158.29,71.91,154.09,76.91S121.1,210.98,120.34,213.42S99.83,255.82,102.69,255.31S137.57,326.46,138,326.71S106.74,353.37,106.19,352.75S130,426.58,130.42,428.09S140.91,469.75,141.05,470.58S162.16,648.13,162.21,648.55Z" style="fill: url(#pat_3005_6); opacity: 0.75;"></path>
     <path d="M192,645C191.95,644.58,170.8,466.67,170.67,465.82S159.74,421.54,159.31,420S135.56,346.43,135.17,345S125.29,299.54,124.83,299.76S131.47,263.84,131.72,262.86S148.2,224.84,148.97,222.38S183.14,84.54,183.45,83.1S192.31,36.62,192,36.51S181.38,-29.55,181.33,-29.83" style="stroke: magenta; stroke-width: 3; fill: none;"></path>
    </g>
    <g>
     <path d="M958,459l-152,-2l-148,-2l-112,-8l-132,-6l-81,-17l-60,-30l-64,-53l-36,-41l-41,-10l-21,-19l-12,-53l-9,-60l-3,-53l5,-106" style="stroke: black; stroke-width: 3; fill: none;"></path>
    </g>
    <g>
     <path d="M270.59,251.47C274.15,249.3,289.33,237.94,299.89,233.59S326.13,225.38,344.7,224.06S387.8,228.53,411.92,228.83S468.62,226.76,489.48,225.25S519.35,222.77,537.74,220.48S577.68,213.61,601.51,210.95S649.68,209,682.51,204.99S756.43,191.3,801.44,184.73S932.52,168.79,958.28,165.66L954.66,135.88C928.78,139.03,842.1,148.47,797.1,155.04S711.55,171.23,678.88,175.21S622.03,178.48,598.18,181.13S552.24,188.46,534.04,190.71S507.5,193.86,487.31,195.33S436.41,199.08,412.29,198.83S363.1,192.6,342.58,194.13S301.01,200.75,288.48,205.85S259.08,223.4,254.97,225.86Z" style="fill: url(#pat_3004_2); opacity: 0.75;"></path>
     <path d="M270.59,251.47C274.15,249.3,289.33,237.94,299.89,233.59S326.13,225.38,344.7,224.06S387.8,228.53,411.92,228.83S468.62,226.76,489.48,225.25S519.35,222.77,537.74,220.48S577.68,213.61,601.51,210.95S649.68,209,682.51,204.99S756.43,191.3,801.44,184.73S932.52,168.79,958.28,165.66" style="stroke: red; stroke-width: 3; fill: none;"></path>
    </g>
    <g>
     <path d="M274.04,464.8C280.06,461.57,305.76,446.75,320.57,439.78S366.19,418.97,382.62,414.75S411.57,408.22,425.71,409.98S454.22,419.25,468.8,425.47S505.63,448.28,529.12,455.27S594.61,461.13,622.19,466S666.18,477.37,699.75,485.07S793.3,503.81,834.18,513.67S939.87,542.14,959.31,547.38L950.21,581.18C930.9,575.97,866.66,557.5,825.98,547.69S725.15,526.81,691.93,519.18S643.97,505.58,616.11,500.46S543.73,496.27,519.14,488.82S468.76,463.63,455.06,457.67S431.84,446.04,421.39,444.71S404.68,445.05,391.33,448.65S349.19,464.95,335.48,471.45S296.41,492.51,290.62,495.63Z" style="fill: url(#pat_3004_4); opacity: 0.75;"></path>
     <path d="M274.04,464.8C280.06,461.57,305.76,446.75,320.57,439.78S366.19,418.97,382.62,414.75S411.57,408.22,425.71,409.98S454.22,419.25,468.8,425.47S505.63,448.28,529.12,455.27S594.61,461.13,622.19,466S666.18,477.37,699.75,485.07S793.3,503.81,834.18,513.67S939.87,542.14,959.31,547.38" style="stroke: blue; stroke-width: 3; fill: none;"></path>
    </g>
    <g>
     <path d="M218.89,126.33C229.48,130.99,267.85,149.51,294.72,159.7S376.31,191.43,403.3,194.26S438.15,193.32,458.46,188.31S509.87,166.45,532.57,159.7S586.16,148.79,606.68,144.21S640.66,135.57,661.83,131.1S713.79,120.5,739.39,116.8S782.46,111.6,818.67,108.45S935.12,100.5,958.28,98.92L956.23,68.99C932.98,70.58,852.66,75.39,816.08,78.57S761.28,83.31,735.09,87.11S677.17,97.2,655.64,101.75S621.03,110.25,600.14,114.93S546.79,124.13,524.01,130.95S469.68,154.53,451.26,159.18S430.5,166.92,406.44,164.43S330.87,141.41,305.36,131.65S241.35,103.45,230.97,98.87Z" style="fill: url(#pat_3004_4); opacity: 0.75;"></path>
     <path d="M218.89,126.33C229.48,130.99,267.85,149.51,294.72,159.7S376.31,191.43,403.3,194.26S438.15,193.32,458.46,188.31S509.87,166.45,532.57,159.7S586.16,148.79,606.68,144.21S640.66,135.57,661.83,131.1S713.79,120.5,739.39,116.8S782.46,111.6,818.67,108.45S935.12,100.5,958.28,98.92" style="stroke: blue; stroke-width: 3; fill: none;"></path>
    </g>
   </svg>
   <g>
    <g transform="translate(0,640)">
     <path d="M0,0h960M0,-640h960M0,-16v16m21,-8v8m22,-8v8m21,-8v8m21,-8v8m22,-16v16m21,-8v8m21,-8v8m22,-8v8m21,-8v8m21,-16v16m22,-8v8m21,-8v8m21,-8v8m22,-8v8m21,-16v16m21,-8v8m22,-8v8m21,-8v8m21,-8v8m22,-16v16m21,-8v8m21,-8v8m22,-8v8m21,-8v8m21,-16v16m22,-8v8m21,-8v8m21,-8v8m22,-8v8m21,-16v16m21,-8v8m22,-8v8m21,-8v8m21,-8v8m22,-16v16m21,-8v8m21,-8v8m22,-8v8m21,-8v8m21,-16v16m22,-8v8m21,-8v8m21,-8v8m22,-8v8m21,-16v16M0,-624V-640M21,-632V-640M43,-632V-640M64,-632V-640M85,-632V-640M107,-624V-640M128,-632V-640M149,-632V-640M171,-632V-640M192,-632V-640M213,-624V-640M235,-632V-640M256,-632V-640M277,-632V-640M299,-632V-640M320,-624V-640M341,-632V-640M363,-632V-640M384,-632V-640M405,-632V-640M427,-624V-640M448,-632V-640M469,-632V-640M491,-632V-640M512,-632V-640M533,-624V-640M555,-632V-640M576,-632V-640M597,-632V-640M619,-632V-640M640,-624V-640M661,-632V-640M683,-632V-640M704,-632V-640M725,-632V-640M747,-624V-640M768,-632V-640M789,-632V-640M811,-632V-640M832,-632V-640M853,-624V-640M875,-632V-640M896,-632V-640M917,-632V-640M939,-632V-640M960,-624V-640" style="stroke: black; stroke-width: 1;"></path>
     <g font-family="Arial" font-size="24" space="preserve" fill="black" text-anchor="middle">
      <text dy=".8em" transform="translate(0,6)">
       50
      </text>
      <text dy=".8em" transform="translate(107,6)">
       100
      </text>
      <text dy=".8em" transform="translate(213,6)">
       150
      </text>
      <text dy=".8em" transform="translate(320,6)">
       200
      </text>
      <text dy=".8em" transform="translate(427,6)">
       250
      </text>
      <text dy=".8em" transform="translate(533,6)">
       300
      </text>
      <text dy=".8em" transform="translate(640,6)">
       350
      </text>
      <text dy=".8em" transform="translate(747,6)">
       400
      </text>
      <text dy=".8em" transform="translate(853,6)">
       450
      </text>
      <text dy=".8em" transform="translate(960,6)">
       500
      </text>
     </g>
     <g font-family="Arial" font-size="28" space="preserve" transform="translate(960,45)">
      <g transform="translate(-116,9)">
       <text fill="black" font-size="28">
        m
       </text>
       <text fill="black" font-size="17" transform="translate(24,5)">
        A
       </text>
       <text fill="black" font-size="28" x="36">
        (GeV)
       </text>
      </g>
     </g>
    </g>
    <g>
     <path d="M0,0v640M960,0v640M36,640h-36m36,-113h-36m36,-67h-36m36,-47h-36m36,-36h-36m36,-30h-36m36,-25h-36m36,-22h-36m36,-19h-36m36,-18h-36m36,-113h-36m36,-66h-36m36,-47h-36m36,-37h-36M924,640H960M924,527H960M924,460H960M924,413H960M924,377H960M924,347H960M924,322H960M924,300H960M924,281H960M924,263H960M924,150H960M924,84H960M924,37H960M924,0H960" style="stroke: black; stroke-width: 1;"></path>
     <g font-family="Arial" font-size="16" space="preserve" fill="black" text-anchor="end">
      <text dy=".4em" transform="translate(-4,640)">
       1
      </text>
      <text dy=".4em" transform="translate(-4,527)">
       2
      </text>
      <text dy=".4em" transform="translate(-4,460)">
       3
      </text>
      <text dy=".4em" transform="translate(-4,413)">
       4
      </text>
      <text dy=".4em" transform="translate(-4,377)">
       5
      </text>
      <text dy=".4em" transform="translate(-4,347)">
       6
      </text>
      <text dy=".4em" transform="translate(-4,322)">
       7
      </text>
      <text dy=".4em" transform="translate(-4,300)">
       8
      </text>
      <text dy=".4em" transform="translate(-4,281)">
       9
      </text>
      <text dy=".4em" transform="translate(-4,263)">
       10
      </text>
      <text dy=".4em" transform="translate(-4,150)">
       20
      </text>
      <text dy=".4em" transform="translate(-4,84)">
       30
      </text>
      <text dy=".4em" transform="translate(-4,37)">
       40
      </text>
      <text dy=".4em" transform="translate(-4)">
       50
      </text>
     </g>
     <g font-family="Arial" font-size="28" space="preserve" transform="translate(-51,0)">
      <g transform=" rotate(270) translate(-56,10)">
       <text fill="black" font-size="28">
        tanβ
       </text>
      </g>
     </g>
    </g>
   </g>
   <g>
    <g font-family="Arial" font-size="29" space="preserve" font-weight="bold">
     <g transform="translate(194,45)">
      <text fill="magenta" font-size="29">
       ← t → bH
      </text>
      <text fill="magenta" font-size="17" transform="translate(134,-14)">
       +
      </text>
      <text fill="magenta" font-size="29" x="145">
       , H
      </text>
      <text fill="magenta" font-size="17" transform="translate(183,-14)">
       +
      </text>
      <text fill="magenta" font-size="29" x="194">
       → τν
      </text>
     </g>
    </g>
    <g font-family="Arial" font-size="29" space="preserve" font-weight="bold">
     <text fill="black" text-anchor="start" transform="translate(633,331)">
      ATLAS
     </text>
    </g>
    <g font-family="Arial" font-size="17" space="preserve" font-weight="bold">
     <g transform="translate(594,369)">
      <g>
       <path style="stroke: black; stroke-width: 2; fill: none;" d="M0,4a3,3,0,0,0,6,0v-23a3,3,0,1,1,6,0"></path>
      </g>
      <text fill="black" font-size="17" x="17">
       Ldt = 300 fb
      </text>
      <text fill="black" font-size="10" transform="translate(112,-8)">
       -1
      </text>
     </g>
    </g>
    <g font-family="Arial" font-size="17" space="preserve" font-weight="bold">
     <text fill="black" text-anchor="start" transform="translate(620,406)">
      Maximal mixing
     </text>
    </g>
    <g font-family="Arial" font-size="17" space="preserve" font-weight="bold">
     <text fill="black" text-anchor="start" transform="translate(775,489)">
      LEP 2000
     </text>
    </g>
    <g font-family="Arial" font-size="29" space="preserve" font-weight="bold">
     <g transform="translate(295,274)">
      <text fill="red" font-size="29">
       gb → tH
      </text>
      <text fill="red" font-size="17" transform="translate(112,-14)">
       +
      </text>
      <text fill="red" font-size="29" x="123">
       , H
      </text>
      <text fill="red" font-size="17" transform="translate(161,-14)">
       +
      </text>
      <text fill="red" font-size="29" x="172">
       → τν
      </text>
     </g>
    </g>
    <g font-family="Arial" font-size="29" space="preserve" font-weight="bold">
     <g transform="translate(245,616)">
      <text fill="blue" font-size="29">
       gb → tH
      </text>
      <text fill="blue" font-size="17" transform="translate(112,-14)">
       +
      </text>
      <text fill="blue" font-size="29" x="123">
       , H
      </text>
      <text fill="blue" font-size="17" transform="translate(161,-14)">
       +
      </text>
      <text fill="blue" font-size="29" x="172">
       → tb
      </text>
     </g>
    </g>
   </g>
  </g>
 </g>
</svg>
